X: 83
R:jig
T:The Rustler's Jig
M:6/8
L:1/8
K:D
f/g/|a2d' f2a|d2f A2d|cBc ABc|gfa g2e/f/|
g2b e2g|c2e A2a|c'ba gfe|d3 d2:|
K:A
A|cd^d efg|a2e c'2a|gab efg|acf e2A|
cd^d efg|a2e c'2a|gab efg|a3 a2:|
